!!!!SEGMENT: pl-sa--78-a-ii-18--001-007_kraus-lambert--requiem-ex-dis-benedictus.krn
!!!cenid: 17xx:1687
!!!COM: Kraus, Lambert
!!!COM-rismID: pe30001779
!!!CDT: 1728-1790
!!!CNT: German
!!!OPR: Requiem ex Dis
!!!OTL: Benedictus
!!!OMV: 007
!!!PDT:
!!!AGN: Sacred; Requiem
!!!YEC: Copyright 2022 Narodowy Instytut Fryderyka Chopina (https://polishscores.org)
!!!YEM: License CC-BY-4.0 (https://creativecommons.org/licenses/by/4.0)
!!!SMS-siglum: PL-SA
!!!SMS-shelfmark: 78/A II 18
!!!SMS-shelfwork: 001-007 M
!!!SMS-variant:
!!!SMS-altvar:
!!!NIFC-rismSourceID: 1001070176
!!!NIFC-rismChildID: 1001070176
!!!NIFC-islandoraID: none
!!!URL-pdf-islandora:
!!!URL-scan: https://bc.bdsandomierz.pl/dlibra/publication/1355/edition/1323/content @EN{Scan in the Sandomierz Diocese Digital Library} @PL{Skany w portalu Cyfrowa Biblioteka Diecezjalna w Sandomierzu}
!!!IIIF:
!!!ONB-nifc: UWAGA: części Requiem: 1. Requiem, 2. Kyrie, 3. Dies irae, 4. Responde mihi, 5. Sanctus, 6. Benedictus, 7. Agnus Dei, 8. Lux aeterna
!!!OMD:
!!!AIN: 1 alto 1 bass 2 cor 1 organ 1 soprn 1 tenor 2 violn
!!!key: E-
**kern	**kern	**kern	**kern	**text	**kern	**kern	**kern	**kern	**kern
*part9	*part8	*part7	*part6	*	*part5	*part4	*part3	*part2	*part1
*staff9	*staff8	*staff7	*staff6	*	*staff5	*staff4	*staff3	*staff2	*staff1
*I"Organo	*I"Violino 2do	*I"Violino 1mo	*I"Baſso	*	*I"Tenore	*I"Alto	*I"Canto	*I"Cornu 2do ex Dis	*I"Cornu 1mo ex Dis
*I'org (=bc)	*I'vl 2	*I'vl 1	*I'B	*	*I'T	*I'A	*I'S	*I'cor 2	*I'cor 1
*Iorgan	*Ivioln	*Ivioln	*Ibass	*	*Itenor	*Ialto	*Isoprn	*Icor	*Icor
*ICklav	*ICstr	*ICstr	*ICvox	*	*ICvox	*ICvox	*ICvox	*ICbras	*ICbras
*clefF4	*clefG2	*clefG2	*clefF4	*	*clefC4	*clefC3	*clefC1	*clefG2	*clefG2
*	*	*	*	*	*	*	*	*ITrd5c9	*ITrd5c9
*ok[a-e-b-]	*	*ok[e-b-a-]	*	*	*	*	*	*	*
*k[b-e-a-]	*k[b-e-a-]	*k[b-e-a-]	*k[b-e-a-]	*	*k[b-e-a-]	*k[b-e-a-]	*k[b-e-a-]	*k[b-e-a-]	*k[b-e-a-]
*E-:	*E-:	*E-:	*E-:	*	*E-:	*E-:	*E-:	*E-:	*E-:
*M4/4	*M4/4	*M4/4	*M4/4	*	*M4/4	*M4/4	*M4/4	*M4/4	*M4/4
*met(c)	*met(c)	*met(c)	*met(c)	*	*met(c)	*met(c)	*met(c)	*met(c)	*met(c)
=1	=1	=1	=1	=1	=1	=1	=1	=1	=1
!LO:TX:t=P:problem=mixed beam	!LO:TX:a:t=Benedictus Tacet	!	!LO:TX:a:i:t=Solo	!	!LO:TX:a:t=Benedictus Tacet	!LO:TX:a:t=Benedictus Tacet	!LO:TX:a:t=Benedictus\nTacet	!LO:TX:a:t=Benedictus Tacet\nOsanna ut Supra	!LO:TX:a:t=Benedictus Tacet\n Osanna ut Supra
8C/L	1ryy	16c/LL	00r	.	1ryy	1ryy	1ryy	1ryy	1ryy
.	.	16G/JJ	.	.	.	.	.	.	.
8C/	.	16r	.	.	.	.	.	.	.
.	.	16e-/	.	.	.	.	.	.	.
8G\	.	16e-/LL	.	.	.	.	.	.	.
.	.	16d/	.	.	.	.	.	.	.
8GG/J	.	16c/	.	.	.	.	.	.	.
.	.	16Bn/JJ	.	.	.	.	.	.	.
!LO:TX:t=P:problem=mixed beam	!	!	!	!	!	!	!	!	!
8C/L	.	16c/LL	.	.	.	.	.	.	.
.	.	16G/JJ	.	.	.	.	.	.	.
8CC/	.	16r	.	.	.	.	.	.	.
.	.	16e-/	.	.	.	.	.	.	.
8G\	.	16e-/LL	.	.	.	.	.	.	.
.	.	16d/	.	.	.	.	.	.	.
8GG/J	.	16c/	.	.	.	.	.	.	.
.	.	16Bn/JJ	.	.	.	.	.	.	.
=2	=2	=2	=2	=2	=2	=2	=2	=2	=2
4C\	1ryy	16c/LL	.	.	1ryy	1ryy	1ryy	1ryy	1ryy
.	.	16d/	.	.	.	.	.	.	.
.	.	16e-/	.	.	.	.	.	.	.
.	.	16f/JJ	.	.	.	.	.	.	.
4r	.	16e-/LL	.	.	.	.	.	.	.
.	.	16f/	.	.	.	.	.	.	.
.	.	16f/	.	.	.	.	.	.	.
.	.	16g/JJ	.	.	.	.	.	.	.
8E-\L	.	8.g/L	.	.	.	.	.	.	.
8E-\	.	.	.	.	.	.	.	.	.
.	.	32f/LL	.	.	.	.	.	.	.
.	.	32g/JJJ	.	.	.	.	.	.	.
8F#X\	.	16a-/LL	.	.	.	.	.	.	.
.	.	16f/	.	.	.	.	.	.	.
8F#\J	.	16d/	.	.	.	.	.	.	.
.	.	16c/JJ	.	.	.	.	.	.	.
!	!	!LO:LB:g=original	!	!	!	!	!	!	!
=3	=3	=3	=3	=3	=3	=3	=3	=3	=3
!LO:TX:t=P:problem=mixed beam	!	!	!	!	!	!	!	!	!
8G\L	1ryy	16Bn/LL	.	.	1ryy	1ryy	1ryy	1ryy	1ryy
.	.	16A-/	.	.	.	.	.	.	.
8GG/J	.	16G/	.	.	.	.	.	.	.
.	.	16G/JJ	.	.	.	.	.	.	.
8En\L	.	16r	.	.	.	.	.	.	.
.	.	16g/LL	.	.	.	.	.	.	.
8E\J	.	16a-/	.	.	.	.	.	.	.
.	.	16b-/JJ	.	.	.	.	.	.	.
8F\L	.	16.a-/LL	.	.	.	.	.	.	.
.	.	32f/K	.	.	.	.	.	.	.
8G\	.	16.en/	.	.	.	.	.	.	.
.	.	32g/JJk	.	.	.	.	.	.	.
8A-\	.	16f|</LL	.	.	.	.	.	.	.
.	.	(16f/	.	.	.	.	.	.	.
8D\J	.	16g/)	.	.	.	.	.	.	.
.	.	16a-/JJ	.	.	.	.	.	.	.
=4	=4	=4	=4	=4	=4	=4	=4	=4	=4
8E-X/L	1ryy	16.g/LL	.	.	1ryy	1ryy	1ryy	1ryy	1ryy
.	.	32e-/K	.	.	.	.	.	.	.
8BB-/J	.	16.d/	.	.	.	.	.	.	.
.	.	32f/JJk	.	.	.	.	.	.	.
4EE-/	.	16e-/LL	.	.	.	.	.	.	.
.	.	16e-/	.	.	.	.	.	.	.
.	.	16d/	.	.	.	.	.	.	.
.	.	16c/JJ	.	.	.	.	.	.	.
!LO:TX:t=P:problem=mixed beam	!	!	!	!	!	!	!	!	!
8FF/L	.	16Bn/LL	.	.	.	.	.	.	.
.	.	16G/JJ	.	.	.	.	.	.	.
8F\	.	16r	.	.	.	.	.	.	.
.	.	16g/	.	.	.	.	.	.	.
8BBn\	.	8.a-/L	.	.	.	.	.	.	.
8BB\J	.	.	.	.	.	.	.	.	.
.	.	32g/LL	.	.	.	.	.	.	.
.	.	32f/JJJ	.	.	.	.	.	.	.
!	!	!LO:LB:g=original	!	!	!	!	!	!	!
=5	=5	=5	=5	=5	=5	=5	=5	=5	=5
!	!	!LO:TX:t=P:problem=mixed beam	!	!	!	!	!	!	!
8C/L	1ryy	16e-/LL	1r	.	1ryy	1ryy	1ryy	1ryy	1ryy
.	.	16gg\	.	.	.	.	.	.	.
8r	.	16gg\	.	.	.	.	.	.	.
.	.	16gg\JJ	.	.	.	.	.	.	.
8GG/J	.	16.gg\LL	.	.	.	.	.	.	.
.	.	32bn\JJk	.	.	.	.	.	.	.
!LO:LB:g=original	!	!	!	!	!	!	!	!	!
=-	=-	=-	=-	=-	=-	=-	=-	=-	=-
!	!	!LO:N:vis=16.	!	!	!	!	!	!	!
8r	.	16b\LL	.	.	.	.	.	.	.
.	.	32a-\L	.	.	.	.	.	.	.
.	.	32b\JJJ	.	.	.	.	.	.	.
8CC/L	.	16cc/LL	.	.	.	.	.	.	.
.	.	16g/	.	.	.	.	.	.	.
8r	.	16g/	.	.	.	.	.	.	.
.	.	16g/JJ	.	.	.	.	.	.	.
8GG/J	.	16.g/LL	.	.	.	.	.	.	.
.	.	32Bn/JJk	.	.	.	.	.	.	.
!	!	!LO:N:vis=16.	!	!	!	!	!	!	!
8r	.	16B/LL	.	.	.	.	.	.	.
.	.	32A-/L	.	.	.	.	.	.	.
.	.	32B/JJJ	.	.	.	.	.	.	.
=6	=6	=6	=6	=6	=6	=6	=6	=6	=6
8CC/L	1ryy	4c;>/	2r	.	1ryy	1ryy	1ryy	1ryy	1ryy
8GG/J	.	.	.	.	.	.	.	.	.
4CC/	.	4r	.	.	.	.	.	.	.
!LO:TX:t=P:problem=mixed beam	!	!	!	!	!	!	!	!	!
8C\L	.	8.cc\L	8.c\	Be-	.	.	.	.	.
8C\	.	.	.	.	.	.	.	.	.
.	.	16dd\Jk	16G\	-ne-	.	.	.	.	.
8G\	.	16ee-\LL	16G\LL	-dic-	.	.	.	.	.
.	.	16dd\	16F\JJ	.	.	.	.	.	.
8GG/J	.	16cc\	16E-\LL	-tus	.	.	.	.	.
.	.	16bn\JJ	16D\JJ	.	.	.	.	.	.
=7	=7	=7	=7	=7	=7	=7	=7	=7	=7
!LO:TX:t=P:problem=mixed beam	!	!	!	!	!	!	!	!	!
8C/L	1ryy	8.cc\L	8.C/	be-	1ryy	1ryy	1ryy	1ryy	1ryy
8CC/	.	.	.	.	.	.	.	.	.
.	.	16dd\Jk	16G\	-ne-	.	.	.	.	.
8G\	.	16ee-\LL	16G\LL	-di[c]-	.	.	.	.	.
.	.	16dd\	16F\JJ	.	.	.	.	.	.
8GG/J	.	16cc\	16E-\	-tus	.	.	.	.	.
.	.	16bn\JJ	16D\	qui	.	.	.	.	.
!	!	!LO:LB:g=original	!	!	!	!	!	!	!
=-	=-	=-	=-	=-	=-	=-	=-	=-	=-
4C\	.	4cc\	16C\LL	ve-	.	.	.	.	.
.	.	.	16D\JJ	.	.	.	.	.	.
.	.	.	16D\LL	.	.	.	.	.	.
.	.	.	16E-\JJ	.	.	.	.	.	.
4r	.	16c/LL	16E-\LL	.	.	.	.	.	.
.	.	16d/	16F\JJ	.	.	.	.	.	.
.	.	16d/	16F\LL	.	.	.	.	.	.
.	.	16e-/JJ	16G\JJ	.	.	.	.	.	.
!	!	!	!LO:LB:g=original	!	!	!	!	!	!
=8	=8	=8	=8	=8	=8	=8	=8	=8	=8
8E-\L	1ryy	4e-/	8G\	.	1ryy	1ryy	1ryy	1ryy	1ryy
8E-\	.	.	16F\	-nit	.	.	.	.	.
.	.	.	16G\	in	.	.	.	.	.
8F\	.	4r	16A-\LL	no-	.	.	.	.	.
.	.	.	16F\JJ	.	.	.	.	.	.
8F#X\J	.	.	16d\	-mi-	.	.	.	.	.
.	.	.	16c\	-ne	.	.	.	.	.
!LO:TX:t=P:problem=mixed beam	!	!	!	!	!	!	!	!	!
8G\L	.	8r	16Bn\LL	Do-	.	.	.	.	.
.	.	.	16A-\JJ	.	.	.	.	.	.
8GG/J	.	8g/	16G\	-mi-	.	.	.	.	.
!	!	!	!LO:N:vis=8	!	!	!	!	!	!
.	.	.	16G\	-ni	.	.	.	.	.
!	!	!LO:TX:t=P:problem=mixed beam	!LO:N:vis=8	!	!	!	!	!	!
8En\L	.	8cc\L	16r	.	.	.	.	.	.
.	.	.	16G\LL	in	.	.	.	.	.
8E\J	.	8c/J	16A-X\	.	.	.	.	.	.
.	.	.	16B-X\JJ	.	.	.	.	.	.
=9	=9	=9	=9	=9	=9	=9	=9	=9	=9
8F\L	1ryy	8cc\L	16A-\LL	no-	1ryy	1ryy	1ryy	1ryy	1ryy
.	.	.	16F\JJ	.	.	.	.	.	.
8G\	.	8b-\	16En\LL	-mi-	.	.	.	.	.
.	.	.	16G\JJ	.	.	.	.	.	.
!	!	!	!LO:N:vis=8	!	!	!	!	!	!
8A-\	.	8a-\	16F\	-ne	.	.	.	.	.
.	.	.	16F\LL	in	.	.	.	.	.
8D\J	.	8g\J	16G\	.	.	.	.	.	.
.	.	.	16A-\JJ	.	.	.	.	.	.
8E-X\L	.	8b-/L	16G\LL	no-	.	.	.	.	.
.	.	.	16E-X\JJ	.	.	.	.	.	.
8BB-\J	.	8a-/J	16D\LL	-mi-	.	.	.	.	.
.	.	.	16F\JJ	.	.	.	.	.	.
4EE-/	.	4g/	8E-\	-ne	.	.	.	.	.
.	.	.	8B-\	in	.	.	.	.	.
!LO:LB:g=original	!	!	!LO:LB:g=original	!	!	!	!	!	!
=10	=10	=10	=10	=10	=10	=10	=10	=10	=10
*	*	*	*2\right	*	*	*	*	*	*
16r	1ryy	16r	2B-\	no-	1ryy	1ryy	1ryy	1ryy	1ryy
16D\LL	.	16ff\LL	.	.	.	.	.	.	.
16E-\	.	16gg\	.	.	.	.	.	.	.
16F\JJ	.	16aa-\JJ	.	.	.	.	.	.	.
16r	.	16r	.	.	.	.	.	.	.
16E-\LL	.	16gg\LL	.	.	.	.	.	.	.
16F\	.	16aa-\	.	.	.	.	.	.	.
16G\JJ	.	16bb-\JJ	.	.	.	.	.	.	.
16r	.	16r	8.B-\	.	.	.	.	.	.
16D\LL	.	16f/LL	.	.	.	.	.	.	.
16E-\	.	16g/	.	.	.	.	.	.	.
16F\JJ	.	16a-/JJ	16B-\	-mi-	.	.	.	.	.
16r	.	16r	8.B-\	-ne	.	.	.	.	.
16E-\LL	.	16g/LL	.	.	.	.	.	.	.
16F\	.	16a-/	.	.	.	.	.	.	.
16G\JJ	.	16b-/JJ	16e-\	in	.	.	.	.	.
!	!	!LO:LB:g=original	!	!	!	!	!	!	!
=11	=11	=11	=11	=11	=11	=11	=11	=11	=11
8A-\L	1ryy	16cc|>\LL	8.c\	no-	1ryy	1ryy	1ryy	1ryy	1ryy
.	.	(16cc\	.	.	.	.	.	.	.
8A-\	.	16dd\	.	.	.	.	.	.	.
.	.	16ee-\JJ)	16A-\	-mi-	.	.	.	.	.
8A-\	.	16ff|>\LL	4F\	-ne	.	.	.	.	.
.	.	(16cc\	.	.	.	.	.	.	.
8A-\J	.	16b-\	.	.	.	.	.	.	.
.	.	16a-\JJ)	.	.	.	.	.	.	.
8G\L	.	16b-|>\LL	8.B-\	Do-	.	.	.	.	.
.	.	(16b-\	.	.	.	.	.	.	.
8G\	.	16cc\	.	.	.	.	.	.	.
.	.	16dd\JJ)	16G\	-mi-	.	.	.	.	.
8G\	.	16ee-|>\LL	8.E-\	-ni	.	.	.	.	.
.	.	(16b-\	.	.	.	.	.	.	.
8G\J	.	16a-\	.	.	.	.	.	.	.
.	.	16g\JJ)	16B-\	in	.	.	.	.	.
=12	=12	=12	=12	=12	=12	=12	=12	=12	=12
!LO:TX:t=P:problem=mixed beam	!	!	!	!	!	!	!	!	!
8F\L	1ryy	16a-|>\LL	8.A-\	no-	1ryy	1ryy	1ryy	1ryy	1ryy
.	.	(16a-\	.	.	.	.	.	.	.
8F\	.	16dd\)	.	.	.	.	.	.	.
.	.	16ee-\JJ	16F\	-mi-	.	.	.	.	.
8BB-/	.	16ff\LL	8.D\	-ne	.	.	.	.	.
.	.	16dd\	.	.	.	.	.	.	.
8BB-/J	.	16b-\	.	.	.	.	.	.	.
.	.	16a-\JJ	16BB-/	in	.	.	.	.	.
!LO:TX:t=P:problem=mixed beam	!	!	!	!	!	!	!	!	!
8E-\L	.	8g/L	16G\	Do-	.	.	.	.	.
.	.	.	16F\	-mi-	.	.	.	.	.
8BB-/J	.	8f/J	8F\	-ni	.	.	.	.	.
4r	.	8r	4r	.	.	.	.	.	.
.	.	8bb-\	.	.	.	.	.	.	.
=13	=13	=13	=13	=13	=13	=13	=13	=13	=13
*	*	*2\right	*	*	*	*	*	*	*
16r	1ryy	2bb-\	16r	.	1ryy	1ryy	1ryy	1ryy	1ryy
16D\LL	.	.	16F\LL	no-	.	.	.	.	.
16E-\	.	.	16G\	.	.	.	.	.	.
16F\JJ	.	.	16A-\JJ	.	.	.	.	.	.
16r	.	.	16r	.	.	.	.	.	.
16E-\LL	.	.	16G\LL	.	.	.	.	.	.
16F\	.	.	16A-\	.	.	.	.	.	.
16G\JJ	.	.	16B-\JJ	.	.	.	.	.	.
!LO:LB:g=original	!	!	!LO:LB:g=original	!	!	!	!	!	!
=-	=-	=-	=-	=-	=-	=-	=-	=-	=-
16r	.	2bb-\	16r	.	.	.	.	.	.
16D\LL	.	.	16D\LL	.	.	.	.	.	.
16E-\	.	.	16E-\	.	.	.	.	.	.
16F\JJ	.	.	16F\JJ	.	.	.	.	.	.
16r	.	.	16r	.	.	.	.	.	.
16E-\LL	.	.	16E-\LL	.	.	.	.	.	.
16F\	.	.	16F\	.	.	.	.	.	.
16G\JJ	.	.	16G\JJ	.	.	.	.	.	.
=14	=14	=14	=14	=14	=14	=14	=14	=14	=14
!LO:TX:t=P:problem=mixed beam	!	!	!	!	!	!	!	!	!
8A-\L	1ryy	8aa-\L	8c\	.	1ryy	1ryy	1ryy	1ryy	1ryy
!	!	!LO:TUP:a:problem=klamra łukowa	!	!	!	!	!	!	!
8A-\	.	24aa-\L	16c\LL	-mi-	.	.	.	.	.
.	.	24gg\	.	.	.	.	.	.	.
.	.	.	16B-\JJ	.	.	.	.	.	.
.	.	24ff\JJ	.	.	.	.	.	.	.
!	!	!LO:LB:g=original	!	!	!	!	!	!	!
=-	=-	=-	=-	=-	=-	=-	=-	=-	=-
8B-\	.	8ee-\L	8A-\	-ne	.	.	.	.	.
8BB-/J	.	8dd\J	8G\	Do-	.	.	.	.	.
!LO:TX:t=P:problem=mixed beam	!	!	!	!	!	!	!	!	!
8E-\L	.	16ee-\LL	8F\	-mi-	.	.	.	.	.
.	.	16b-\JJ	.	.	.	.	.	.	.
8E-\	.	16r	8E-\	-ni	.	.	.	.	.
.	.	16gg\	.	.	.	.	.	.	.
8B-\	.	16gg\LL	4r	.	.	.	.	.	.
.	.	16ff\	.	.	.	.	.	.	.
8BB-/J	.	16ee-\	.	.	.	.	.	.	.
.	.	16dd\JJ	.	.	.	.	.	.	.
=15	=15	=15	=15	=15	=15	=15	=15	=15	=15
!LO:TX:t=P:problem=mixed beam	!	!	!	!	!	!	!	!	!
8E-\L	1ryy	16ee-\LL	00r	.	1ryy	1ryy	1ryy	1ryy	1ryy
.	.	16b-\JJ	.	.	.	.	.	.	.
8EE-/	.	16r	.	.	.	.	.	.	.
.	.	16gg\	.	.	.	.	.	.	.
8B-\	.	16gg\LL	.	.	.	.	.	.	.
.	.	16ff\	.	.	.	.	.	.	.
8BB-/J	.	16ee-\	.	.	.	.	.	.	.
.	.	16dd\JJ	.	.	.	.	.	.	.
4E-\	.	(16ee-\LL	.	.	.	.	.	.	.
.	.	16ff\)	.	.	.	.	.	.	.
.	.	(16ff\	.	.	.	.	.	.	.
.	.	16gg\JJ)	.	.	.	.	.	.	.
4r	.	16gg\LL	.	.	.	.	.	.	.
.	.	16aa-\	.	.	.	.	.	.	.
.	.	16aa-\	.	.	.	.	.	.	.
.	.	16bb-\JJ	.	.	.	.	.	.	.
=16	=16	=16	=16	=16	=16	=16	=16	=16	=16
8G\L	1ryy	8.bb-\L	.	.	1ryy	1ryy	1ryy	1ryy	1ryy
8G\	.	.	.	.	.	.	.	.	.
.	.	32aa-\LL	.	.	.	.	.	.	.
.	.	32bb-\JJJ	.	.	.	.	.	.	.
8A-\	.	16ccc\LL	.	.	.	.	.	.	.
.	.	16aa-\	.	.	.	.	.	.	.
8An\J	.	16ff\	.	.	.	.	.	.	.
.	.	16ee-\JJ	.	.	.	.	.	.	.
!LO:TX:t=P:problem=mixed beam	!	!LO:TUP:a:problem=klamra łukowa	!	!	!	!	!	!	!
8B-\L	.	24dd\LL	.	.	.	.	.	.	.
.	.	24cc\	.	.	.	.	.	.	.
.	.	24b-\J	.	.	.	.	.	.	.
8BB-/	.	8b-\J	.	.	.	.	.	.	.
!	!	!LO:LB:g=original	!	!	!	!	!	!	!
=-	=-	=-	=-	=-	=-	=-	=-	=-	=-
8G\	.	16r	.	.	.	.	.	.	.
.	.	16b-\LL	.	.	.	.	.	.	.
8G\J	.	16cc\	.	.	.	.	.	.	.
.	.	16dd-X\JJ	.	.	.	.	.	.	.
=17	=17	=17	=17	=17	=17	=17	=17	=17	=17
8A-\L	2ryy	16.cc/LL	.	.	1ryy	2ryy	2ryy	2ryy	2ryy
.	.	32a-/K	.	.	.	.	.	.	.
8B-\	.	16.g/	.	.	.	.	.	.	.
.	.	32b-/JJk	.	.	.	.	.	.	.
8c\	.	16a-/LL	.	.	.	.	.	.	.
.	.	16a-/	.	.	.	.	.	.	.
8A-\J	.	16b-/	.	.	.	.	.	.	.
.	.	16cc/JJ	.	.	.	.	.	.	.
8G\L	2ryy	16.b-/LL	.	.	.	2ryy	2ryy	2ryy	2ryy
.	.	32g/K	.	.	.	.	.	.	.
8B-\J	.	16.f/	.	.	.	.	.	.	.
.	.	32a-/JJk	.	.	.	.	.	.	.
4E-\	.	16g/LL	.	.	.	.	.	.	.
.	.	16g/	.	.	.	.	.	.	.
.	.	16f/	.	.	.	.	.	.	.
.	.	16e-/JJ	.	.	.	.	.	.	.
=18	=18	=18	=18	=18	=18	=18	=18	=18	=18
8BB-/	1ryy	16e-/LL	.	.	1ryy	1ryy	1ryy	1ryy	1ryy
.	.	16B-/JJ	.	.	.	.	.	.	.
8r	.	16r	.	.	.	.	.	.	.
.	.	16cc\	.	.	.	.	.	.	.
8r	.	8.cc\L	.	.	.	.	.	.	.
!LO:LB:g=original	!	!	!	!	!	!	!	!	!
=-	=-	=-	=-	=-	=-	=-	=-	=-	=-
8D\L	.	.	.	.	.	.	.	.	.
.	.	32b-\LL	.	.	.	.	.	.	.
.	.	32a-\JJJ	.	.	.	.	.	.	.
!	!	!LO:TX:t=P:problem=mixed beam	!	!	!	!	!	!	!
8E-\J	.	16g/LL	.	.	.	.	.	.	.
.	.	16bb-\	.	.	.	.	.	.	.
8r	.	16bb-\	.	.	.	.	.	.	.
.	.	16bb-\JJ	.	.	.	.	.	.	.
!	!	!LO:LB:g=original	!	!	!	!	!	!	!
=-	=-	=-	=-	=-	=-	=-	=-	=-	=-
8BB-/	.	16.bb-\LL	.	.	.	.	.	.	.
.	.	32dd\JJk	.	.	.	.	.	.	.
!	!	!LO:N:vis=16.	!	!	!	!	!	!	!
8r	.	16dd\LL	.	.	.	.	.	.	.
.	.	32cc\L	.	.	.	.	.	.	.
.	.	32dd\JJJ	.	.	.	.	.	.	.
=19	=19	=19	=19	=19	=19	=19	=19	=19	=19
8EE-/L	1ryy	16ee-\LL	0r	.	1ryy	1ryy	1ryy	1ryy	1ryy
.	.	16b-\	.	.	.	.	.	.	.
8r	.	16b-\	.	.	.	.	.	.	.
.	.	16b-\JJ	.	.	.	.	.	.	.
8BB-/J	.	16.b-/LL	.	.	.	.	.	.	.
.	.	32d/JJk	.	.	.	.	.	.	.
!	!	!LO:N:vis=16.	!	!	!	!	!	!	!
8r	.	16d/LL	.	.	.	.	.	.	.
.	.	32c/L	.	.	.	.	.	.	.
.	.	32d/JJJ	.	.	.	.	.	.	.
.	.	8qqd/	.	.	.	.	.	.	.
8E-\L	.	4e-/	.	.	.	.	.	.	.
8BB-\J	.	.	.	.	.	.	.	.	.
4EE-/	.	4r	.	.	.	.	.	.	.
=20	=20	=20	=20	=20	=20	=20	=20	=20	=20
!LO:TX:t=P:problem=zbędny takt pauzy w Baſso	!LO:TX:t=P:problem=zbędny takt pauzy w Baſso	!LO:TX:t=P:problem=zbędny takt pauzy w Baſso	!LO:TX:t=P:problem=zbędny takt pauzy	!	!	!	!	!	!
1ryy	1ryy	1ryy	.	.	1ryy	1ryy	1ryy	1ryy	1ryy
=21	=21	=21	=21	=21	=21	=21	=21	=21	=21
!LO:TX:t=P:problem=mixed beam	!	!	!	!	!	!	!	!	!
8E-\L	1ryy	8.ee-\L	8.E-\	Be-	1ryy	1ryy	1ryy	1ryy	1ryy
8EE-/	.	.	.	.	.	.	.	.	.
.	.	16bb-\Jk	16G\	-ne-	.	.	.	.	.
8B-\	.	16bb-\LL	16G\LL	-dic-	.	.	.	.	.
.	.	16aa-\	16F\JJ	.	.	.	.	.	.
8BB-/J	.	16gg\	16E-\LL	-tus	.	.	.	.	.
.	.	16ff\JJ	16D\JJ	.	.	.	.	.	.
!LO:TX:t=P:problem=mixed beam	!	!	!	!	!	!	!	!	!
8E-\L	.	8.ee-\L	8.E-\	be-	.	.	.	.	.
8EE-/	.	.	.	.	.	.	.	.	.
.	.	16gg\Jk	16B-\	-ne-	.	.	.	.	.
8B-\	.	16gg\LL	16B-\LL	-dic-	.	.	.	.	.
.	.	16ff\	16A-\JJ	.	.	.	.	.	.
8BB-/J	.	16ee-\	16G\	-tus	.	.	.	.	.
.	.	16dd\JJ	16F\	qui	.	.	.	.	.
!	!	!	!LO:LB:g=original	!	!	!	!	!	!
=22	=22	=22	=22	=22	=22	=22	=22	=22	=22
!LO:TX:t=P:problem=mixed beam	!	!	!LO:TUP:a:problem=klamra łukowa	!	!	!	!	!	!
8E-\L	1ryy	4ee-\	24G\LL	ve-	1ryy	1ryy	1ryy	1ryy	1ryy
.	.	.	24F\	.	.	.	.	.	.
.	.	.	24E-\JJ	.	.	.	.	.	.
8EE-/	.	.	8E-\	-nit	.	.	.	.	.
8En\	.	8cc\L	4r	.	.	.	.	.	.
8E\J	.	8b-\J	.	.	.	.	.	.	.
!	!	!LO:LB:g=original	!	!	!	!	!	!	!
=-	=-	=-	=-	=-	=-	=-	=-	=-	=-
!LO:TX:t=P:problem=mixed beam	!	!LO:TX:t=P:problem=mixed beam	!LO:TX:t=P:problem=nadprogramowa pauza 8r	!	!	!	!	!	!
8F\L	.	8.a-/L	8.F\	Be-	.	.	.	.	.
8FF/	.	.	.	.	.	.	.	.	.
.	.	16ccc\Jk	16A-\	-ne-	.	.	.	.	.
8c\	.	16ccc\LL	16A-\LL	-dic-	.	.	.	.	.
.	.	16bb-\	16G\JJ	.	.	.	.	.	.
8C/J	.	16aa-\	16F\LL	-tus	.	.	.	.	.
.	.	16gg\JJ	16En\JJ	.	.	.	.	.	.
=23	=23	=23	=23	=23	=23	=23	=23	=23	=23
!LO:TX:t=P:problem=mixed beam	!	!	!	!	!	!	!	!	!
8F\L	1ryy	8.ff\L	8.F\	be-	1ryy	1ryy	1ryy	1ryy	1ryy
8FF/	.	.	.	.	.	.	.	.	.
.	.	16aa-\Jk	16c\	-ne-	.	.	.	.	.
8C/	.	16aa-\LL	16c\LL	-dic-	.	.	.	.	.
.	.	16gg\	16B-\JJ	.	.	.	.	.	.
8CC/J	.	16ff\	16A-\	-tus	.	.	.	.	.
.	.	16een\JJ	16G\	qui	.	.	.	.	.
.	.	8qqee/	.	.	.	.	.	.	.
*	*	*	*Xtuplet	*	*	*	*	*	*
8FF/L	.	4ff\	24A-\LL	ve-	.	.	.	.	.
.	.	.	(>24G\	.	.	.	.	.	.
.	.	.	24F\JJ)	.	.	.	.	.	.
8CC/J	.	.	8F\	-nit	.	.	.	.	.
4FF/	.	4r	8r	.	.	.	.	.	.
.	.	.	8c\	in	.	.	.	.	.
!LO:LB:g=original	!	!	!	!	!	!	!	!	!
=24	=24	=24	=24	=24	=24	=24	=24	=24	=24
16r	1ryy	16r	2c\	no-	1ryy	1ryy	1ryy	1ryy	1ryy
16C\LL	.	16en/LL	.	.	.	.	.	.	.
16D\	.	16f/	.	.	.	.	.	.	.
16En\JJ	.	16g/JJ	.	.	.	.	.	.	.
16r	.	16r	.	.	.	.	.	.	.
16F\LL	.	16a-/LL	.	.	.	.	.	.	.
16G\	.	16b-/	.	.	.	.	.	.	.
16A-\JJ	.	16cc/JJ	.	.	.	.	.	.	.
16r	.	16r	4.c\	-mi-	.	.	.	.	.
16En\LL	.	16e/LL	.	.	.	.	.	.	.
16F\	.	16f/	.	.	.	.	.	.	.
16G\JJ	.	16g/JJ	.	.	.	.	.	.	.
16r	.	16r	.	.	.	.	.	.	.
16F\LL	.	16a-/LL	.	.	.	.	.	.	.
16G\	.	16b-/	16c\	-ne	.	.	.	.	.
16A-\JJ	.	16cc/JJ	16c\	Do-	.	.	.	.	.
!	!	!LO:LB:g=original	!	!	!	!	!	!	!
=25	=25	=25	=25	=25	=25	=25	=25	=25	=25
8B-\	1ryy	16r	16d\LL	-mi-	1ryy	1ryy	1ryy	1ryy	1ryy
.	.	16dd-X\LL	16B-\JJ	.	.	.	.	.	.
!	!	!	!LO:LB:g=original	!	!	!	!	!	!
=-	=-	=-	=-	=-	=-	=-	=-	=-	=-
8r	.	16cc\	16A-\LL	-ne	.	.	.	.	.
.	.	16b-\JJ	16G\JJ	.	.	.	.	.	.
!LO:TX:t=P:problem=mixed beam	!	!	!	!	!	!	!	!	!
8c\L	.	8a-/L	8F\	Do-	.	.	.	.	.
8C/J	.	8g/J	8E-\	-mi-	.	.	.	.	.
8F\L	.	4f/	4F\	-ni	.	.	.	.	.
8C\J	.	.	.	.	.	.	.	.	.
4FF/	.	4r	8r	.	.	.	.	.	.
.	.	.	8B-\	in	.	.	.	.	.
=26	=26	=26	=26	=26	=26	=26	=26	=26	=26
16r	1ryy	16r	2B-\	no-	1ryy	1ryy	1ryy	1ryy	1ryy
16BB-\LL	.	16d/LL	.	.	.	.	.	.	.
16C\	.	16e-X/	.	.	.	.	.	.	.
16D\JJ	.	16f/JJ	.	.	.	.	.	.	.
16r	.	16r	.	.	.	.	.	.	.
16E-\LL	.	16g/LL	.	.	.	.	.	.	.
16F\	.	16a-/	.	.	.	.	.	.	.
16G\JJ	.	16b-/JJ	.	.	.	.	.	.	.
16r	.	16r	4.B-\	-mi-	.	.	.	.	.
16BB-/LL	.	16d/LL	.	.	.	.	.	.	.
16C/	.	16e-/	.	.	.	.	.	.	.
16D/JJ	.	16f/JJ	.	.	.	.	.	.	.
16r	.	16r	.	.	.	.	.	.	.
16E-\LL	.	16g/LL	.	.	.	.	.	.	.
16F\	.	16a-/	16B-\	-ne	.	.	.	.	.
16G\JJ	.	16b-/JJ	16B-\	no-	.	.	.	.	.
!LO:LB:g=original	!	!	!	!	!	!	!	!	!
=27	=27	=27	=27	=27	=27	=27	=27	=27	=27
8A-\	1ryy	16r	16c\LL	-mi-	1ryy	1ryy	1ryy	1ryy	1ryy
.	.	16cc\LL	16A-\JJ	.	.	.	.	.	.
8r	.	16b-\	16G\	-ne	.	.	.	.	.
.	.	16a-\JJ	16F\	do-	.	.	.	.	.
!LO:TX:t=P:problem=mixed beam	!	!	!	!	!	!	!	!	!
8B-\L	.	8g/L	8E-\	-mi-	.	.	.	.	.
8BB-/J	.	8f/J	8D\	-ni	.	.	.	.	.
!	!	!LO:LB:g=original	!	!	!	!	!	!	!
=-	=-	=-	=-	=-	=-	=-	=-	=-	=-
8E-\L	.	4e-/	4E-\	.	.	.	.	.	.
8BB-\J	.	.	.	.	.	.	.	.	.
4EE-/	.	4r	8r	.	.	.	.	.	.
.	.	.	8E-\	Do-	.	.	.	.	.
=28	=28	=28	=28	=28	=28	=28	=28	=28	=28
!	!	!LO:TX:a:t=1	!	!	!	!	!	!	!
8E-\L	1ryy	1r	16D\LL	.	1ryy	1ryy	1ryy	1ryy	1ryy
.	.	.	16E-\JJ	.	.	.	.	.	.
8E-\	.	.	16F\LL	.	.	.	.	.	.
.	.	.	16G\JJ	.	.	.	.	.	.
8F\	.	.	16A-\LL	.	.	.	.	.	.
.	.	.	16F\JJ	.	.	.	.	.	.
8F#X\J	.	.	16D/LL	-mi-	.	.	.	.	.
.	.	.	16C/JJ	.	.	.	.	.	.
!LO:TX:t=P:problem=mixed beam	!	!	!	!	!	!	!	!	!
8G\L	.	.	4BBn/	-ne	.	.	.	.	.
8GG/J	.	.	.	.	.	.	.	.	.
16G|>\LL	.	.	4r	.	.	.	.	.	.
16F#|>\	.	.	.	.	.	.	.	.	.
16E-|>\	.	.	.	.	.	.	.	.	.
16D|>\JJ	.	.	.	.	.	.	.	.	.
!	!	!	!LO:LB:g=original	!	!	!	!	!	!
=29	=29	=29	=29	=29	=29	=29	=29	=29	=29
!LO:TX:t=P:problem=mixed beam	!	!	!	!	!	!	!	!	!
8C/L	1ryy	8.cc\L	8.c\	Be-	1ryy	1ryy	1ryy	1ryy	1ryy
8C/	.	.	.	.	.	.	.	.	.
.	.	16dd\Jk	16G\	-ne-	.	.	.	.	.
8G\	.	16ee-\LL	16G\LL	-dic-	.	.	.	.	.
.	.	16dd\	16F\JJ	.	.	.	.	.	.
8GG/J	.	16cc\	16E-\LL	-tus	.	.	.	.	.
.	.	16bn\JJ	16D\JJ	.	.	.	.	.	.
!LO:TX:t=P:problem=mixed beam	!	!	!	!	!	!	!	!	!
8C/L	.	8.cc\L	8.C/	be-	.	.	.	.	.
8C/	.	.	.	.	.	.	.	.	.
.	.	16dd\Jk	16G\	-ne-	.	.	.	.	.
8G\	.	16ee-\LL	16G\LL	-dic-	.	.	.	.	.
.	.	16dd\	16F\JJ	.	.	.	.	.	.
8GG/J	.	16cc\	16E-\	-tus	.	.	.	.	.
.	.	16bn\JJ	16D\	qui	.	.	.	.	.
=30	=30	=30	=30	=30	=30	=30	=30	=30	=30
4C/	1ryy	4cc\	16C/LL	ve-	1ryy	1ryy	1ryy	1ryy	1ryy
.	.	.	16D/JJ	.	.	.	.	.	.
.	.	.	16D\LL	.	.	.	.	.	.
.	.	.	16E-\JJ	.	.	.	.	.	.
4r	.	16c/LL	16E-\LL	.	.	.	.	.	.
.	.	16d/	16F\JJ	.	.	.	.	.	.
.	.	16d/	16F\LL	.	.	.	.	.	.
.	.	16e-/JJ	16G\JJ	.	.	.	.	.	.
!	!	!	!LO:N:vis=8.	!	!	!	!	!	!
8E-\L	.	4e-/	8G\	.	.	.	.	.	.
8E-\	.	.	16F\	-nit	.	.	.	.	.
.	.	.	16G\	in	.	.	.	.	.
8F\	.	4r	16A-\	no-	.	.	.	.	.
.	.	.	16F\	-mi-	.	.	.	.	.
8F#X\J	.	.	16d\	-ne	.	.	.	.	.
.	.	.	16c\	.	.	.	.	.	.
!	!	!	!LO:LB:g=original	!	!	!	!	!	!
=31	=31	=31	=31	=31	=31	=31	=31	=31	=31
!LO:TX:t=P:problem=mixed beam	!	!	!	!	!	!	!	!	!
8G\L	1ryy	8r	16Bn\LL	Do-	1ryy	1ryy	1ryy	1ryy	1ryy
.	.	.	16A-\JJ	.	.	.	.	.	.
8GG/	.	8g/	16G\	-mi-	.	.	.	.	.
!	!	!	!LO:N:vis=8	!	!	!	!	!	!
.	.	.	16G\	-ni	.	.	.	.	.
!	!	!LO:TX:t=P:problem=mixed beam	!LO:N:vis=8	!	!	!	!	!	!
8En\	.	8cc\L	16r	.	.	.	.	.	.
.	.	.	16G\LL	in	.	.	.	.	.
8E\J	.	8c/J	16A-X\	.	.	.	.	.	.
.	.	.	16B-X\JJ	.	.	.	.	.	.
!LO:LB:g=original	!	!	!	!	!	!	!	!	!
=-	=-	=-	=-	=-	=-	=-	=-	=-	=-
8F\L	.	8cc\L	16A-\LL	no-	.	.	.	.	.
.	.	.	16F\JJ	.	.	.	.	.	.
8G\	.	8b-X\	16En\LL	-mi-	.	.	.	.	.
.	.	.	16G\JJ	.	.	.	.	.	.
8A-\	.	8a-\	16F\	-ne	.	.	.	.	.
.	.	.	16F\LL	in	.	.	.	.	.
8D\J	.	8g\J	16G\	.	.	.	.	.	.
.	.	.	16A-\JJ	.	.	.	.	.	.
!	!	!LO:LB:g=original	!	!	!	!	!	!	!
=32	=32	=32	=32	=32	=32	=32	=32	=32	=32
8E-\L	1ryy	8a-/L	16G\LL	no-	1ryy	1ryy	1ryy	1ryy	1ryy
.	.	.	16E-\JJ	.	.	.	.	.	.
8BB-\J	.	8g/J	16D\LL	-mi-	.	.	.	.	.
.	.	.	16F\JJ	.	.	.	.	.	.
4EE-/	.	4g/	8E-\	-ne	.	.	.	.	.
.	.	.	8G\	in	.	.	.	.	.
16r	.	16r	2G\	no-	.	.	.	.	.
16BBn/LL	.	16dd\LL	.	.	.	.	.	.	.
16C/	.	16ee-\	.	.	.	.	.	.	.
16D/JJ	.	16ff\JJ	.	.	.	.	.	.	.
16r	.	16r	.	.	.	.	.	.	.
16C\LL	.	16ee-\LL	.	.	.	.	.	.	.
16D\	.	16ff\	.	.	.	.	.	.	.
16E-\JJ	.	16gg\JJ	.	.	.	.	.	.	.
=33	=33	=33	=33	=33	=33	=33	=33	=33	=33
16r	1ryy	16r	8.G\	-mi-	1ryy	1ryy	1ryy	1ryy	1ryy
16BBn/LL	.	16d/LL	.	.	.	.	.	.	.
16C/	.	16e-/	.	.	.	.	.	.	.
16D/JJ	.	16f/JJ	16G\	-ne	.	.	.	.	.
16r	.	16r	8.G\	in	.	.	.	.	.
16C\LL	.	16e-/LL	.	.	.	.	.	.	.
16D\	.	16f/	.	.	.	.	.	.	.
16E-\JJ	.	16g/JJ	16c\	.	.	.	.	.	.
!	!	!	!LO:LB:g=original	!	!	!	!	!	!
=-	=-	=-	=-	=-	=-	=-	=-	=-	=-
8F\L	.	16a-/LL	8.A-\	no-	.	.	.	.	.
.	.	16a-/	.	.	.	.	.	.	.
8F\	.	16b-/	.	.	.	.	.	.	.
.	.	16cc/JJ	16F\	-mi-	.	.	.	.	.
8F\	.	16dd\LL	4D\	-ne	.	.	.	.	.
.	.	16a-\	.	.	.	.	.	.	.
8F\J	.	16g\	.	.	.	.	.	.	.
.	.	16f\JJ	.	.	.	.	.	.	.
=34	=34	=34	=34	=34	=34	=34	=34	=34	=34
8E-\L	1ryy	16g|</LL	8.G\	Do-	1ryy	1ryy	1ryy	1ryy	1ryy
.	.	(16g/	.	.	.	.	.	.	.
8E-\	.	16an/)	.	.	.	.	.	.	.
.	.	16b-/JJ	16E-\	-mi-	.	.	.	.	.
8E-\	.	16cc|</LL	8.C/	-ni	.	.	.	.	.
.	.	(16g/	.	.	.	.	.	.	.
8E-\J	.	16f/)	.	.	.	.	.	.	.
.	.	16e-/JJ	16G\	in	.	.	.	.	.
!	!	!LO:LB:g=original	!	!	!	!	!	!	!
=-	=-	=-	=-	=-	=-	=-	=-	=-	=-
!	!	!	!LO:N:vis=16	!	!	!	!	!	!
8D/L	.	16f|</LL	8F\L	no-	.	.	.	.	.
.	.	(16f/	.	.	.	.	.	.	.
!	!	!	!LO:N:vis=16	!	!	!	!	!	!
8D/	.	16bn/)	8D\J	.	.	.	.	.	.
.	.	16cc/JJ	.	.	.	.	.	.	.
8GG/	.	16dd|>\LL	8.BBn/	-mi-	.	.	.	.	.
.	.	(16a\	.	.	.	.	.	.	.
8GG/J	.	16g\)	.	.	.	.	.	.	.
.	.	16f\JJ	16F\	-ne	.	.	.	.	.
=35	=35	=35	=35	=35	=35	=35	=35	=35	=35
8C/L	1ryy	8e-/L	16E-\	Do-	1ryy	1ryy	1ryy	1ryy	1ryy
.	.	.	16D\	-mi-	.	.	.	.	.
8GG/J	.	8d/J	8D\	-ni	.	.	.	.	.
!LO:LB:g=original	!	!	!	!	!	!	!	!	!
=-	=-	=-	=-	=-	=-	=-	=-	=-	=-
4r	.	8r	4r	.	.	.	.	.	.
.	.	8gg\	.	.	.	.	.	.	.
!	!	!	!LO:N:vis=8	!	!	!	!	!	!
16r	.	2gg\	16r	.	.	.	.	.	.
16BBn/LL	.	.	16D\LL	no-	.	.	.	.	.
16C/	.	.	16E-\	.	.	.	.	.	.
16D/JJ	.	.	16F\JJ	.	.	.	.	.	.
16r	.	.	16r	.	.	.	.	.	.
16C/LL	.	.	16E-\LL	.	.	.	.	.	.
16D/	.	.	16F\	.	.	.	.	.	.
16E-/JJ	.	.	16G\JJ	.	.	.	.	.	.
=36	=36	=36	=36	=36	=36	=36	=36	=36	=36
16r	1ryy	2gg\	16r	.	1ryy	1ryy	1ryy	1ryy	1ryy
!	!	!	!LO:LB:g=original	!	!	!	!	!	!
=-	=-	=-	=-	=-	=-	=-	=-	=-	=-
16BBn/LL	.	.	16BBn/LL	.	.	.	.	.	.
16C/	.	.	16C/	.	.	.	.	.	.
16D/JJ	.	.	16D/JJ	.	.	.	.	.	.
16r	.	.	16r	.	.	.	.	.	.
16C/LL	.	.	16E-\LL	.	.	.	.	.	.
16D/	.	.	16F\	.	.	.	.	.	.
16E-/JJ	.	.	16G\JJ	.	.	.	.	.	.
!LO:TX:t=P:problem=mixed beam	!	!LO:TX:a:t=Da Capo	!	!	!	!	!	!	!
8F\L	.	2r	8A-\	-mi-	.	.	.	.	.
8F\	.	.	16A-\LL	-ne	.	.	.	.	.
.	.	.	16G\JJ	.	.	.	.	.	.
8G\	.	.	16F\	Do-	.	.	.	.	.
.	.	.	16E-\	-mi-	.	.	.	.	.
8GG/J	.	.	8D\	.	.	.	.	.	.
=37	=37	=37	=37	=37	=37	=37	=37	=37	=37
!LO:TX:t=P:problem=mixed beam	!	!LO:TX:t=P:problem=powtórzenie taktów 1-6 (do nuty na RAZ w 6.takcie)	!	!	!	!	!	!	!
8C\L	1ryy	16c/LLyy	4C/	-ni	1ryy	1ryy	1ryy	1ryy	1ryy
.	.	16G/JJyy	.	.	.	.	.	.	.
8C\	.	16ryy	.	.	.	.	.	.	.
.	.	16e-/yy	.	.	.	.	.	.	.
8G\	.	16e-/LLyy	4r	.	.	.	.	.	.
.	.	16d/yy	.	.	.	.	.	.	.
8GG/J	.	16c/yy	.	.	.	.	.	.	.
.	.	16Bn/JJyy	.	.	.	.	.	.	.
!LO:TX:t=P:problem=mixed beam	!	!	!	!	!	!	!	!	!
8C/L	.	16c/LLyy	2r	.	.	.	.	.	.
.	.	16G/JJyy	.	.	.	.	.	.	.
8CC/	.	16ryy	.	.	.	.	.	.	.
.	.	16e-/yy	.	.	.	.	.	.	.
8G\	.	16e-/LLyy	.	.	.	.	.	.	.
.	.	16d/yy	.	.	.	.	.	.	.
8GG/J	.	16c/yy	.	.	.	.	.	.	.
.	.	16Bn/JJyy	.	.	.	.	.	.	.
=38	=38	=38	=38	=38	=38	=38	=38	=38	=38
4C/	1ryy	16c/LLyy	00r	.	1ryy	1ryy	1ryy	1ryy	1ryy
.	.	16d/yy	.	.	.	.	.	.	.
.	.	16e-/yy	.	.	.	.	.	.	.
.	.	16f/JJyy	.	.	.	.	.	.	.
4r	.	16e-/LLyy	.	.	.	.	.	.	.
.	.	16f/yy	.	.	.	.	.	.	.
.	.	16f/yy	.	.	.	.	.	.	.
.	.	16g/JJyy	.	.	.	.	.	.	.
8E-\L	.	8.g/Lyy	.	.	.	.	.	.	.
8E-\J	.	.	.	.	.	.	.	.	.
.	.	32f/LLyy	.	.	.	.	.	.	.
.	.	32g/JJJyy	.	.	.	.	.	.	.
!LO:LB:g=original	!	!	!	!	!	!	!	!	!
=-	=-	=-	=-	=-	=-	=-	=-	=-	=-
8F\L	.	16a-/LLyy	.	.	.	.	.	.	.
.	.	16f/yy	.	.	.	.	.	.	.
8F#X\J	.	16d/yy	.	.	.	.	.	.	.
.	.	16c/JJyy	.	.	.	.	.	.	.
=39	=39	=39	=39	=39	=39	=39	=39	=39	=39
!LO:TX:t=P:problem=mixed beam	!	!	!	!	!	!	!	!	!
8G\L	1ryy	16Bn/LLyy	.	.	1ryy	1ryy	1ryy	1ryy	1ryy
.	.	16A-/yy	.	.	.	.	.	.	.
8GG/	.	16G/yy	.	.	.	.	.	.	.
.	.	16G/JJyy	.	.	.	.	.	.	.
8En\	.	16ryy	.	.	.	.	.	.	.
.	.	16g/LLyy	.	.	.	.	.	.	.
8E\J	.	16a-/yy	.	.	.	.	.	.	.
.	.	16b-/JJyy	.	.	.	.	.	.	.
8F\L	.	16.a-/LLyy	.	.	.	.	.	.	.
.	.	32f/Kyy	.	.	.	.	.	.	.
8G\	.	16.en/yy	.	.	.	.	.	.	.
.	.	32g/JJkyy	.	.	.	.	.	.	.
8A-\	.	16f|</LLyy	.	.	.	.	.	.	.
.	.	(16f/yy	.	.	.	.	.	.	.
8D\J	.	16g/)yy	.	.	.	.	.	.	.
.	.	16a-/JJyy	.	.	.	.	.	.	.
=40	=40	=40	=40	=40	=40	=40	=40	=40	=40
8E-/L	1ryy	16.g/LLyy	.	.	1ryy	1ryy	1ryy	1ryy	1ryy
.	.	32e-/Kyy	.	.	.	.	.	.	.
8BB-/J	.	16.d/yy	.	.	.	.	.	.	.
.	.	32f/JJkyy	.	.	.	.	.	.	.
4EE-/	.	16e-/LLyy	.	.	.	.	.	.	.
.	.	16e-/yy	.	.	.	.	.	.	.
.	.	16d/yy	.	.	.	.	.	.	.
.	.	16c/JJyy	.	.	.	.	.	.	.
!LO:TX:t=P:problem=mixed beam	!	!	!	!	!	!	!	!	!
8FF/L	.	16Bn/LLyy	.	.	.	.	.	.	.
.	.	16G/JJyy	.	.	.	.	.	.	.
8F\	.	16ryy	.	.	.	.	.	.	.
.	.	16g/yy	.	.	.	.	.	.	.
8BBn/	.	8.a-/Lyy	.	.	.	.	.	.	.
8BB/J	.	.	.	.	.	.	.	.	.
.	.	32g/LLyy	.	.	.	.	.	.	.
.	.	32f/JJJyy	.	.	.	.	.	.	.
=41	=41	=41	=41	=41	=41	=41	=41	=41	=41
!	!	!LO:TXX:t=P:problem=mixed beam	!	!	!	!	!	!	!
8C/L	1ryy	16e-/LLyy	.	.	1ryy	1ryy	1ryy	1ryy	1ryy
.	.	16gg\yy	.	.	.	.	.	.	.
8r	.	16gg\yy	.	.	.	.	.	.	.
.	.	16gg\JJyy	.	.	.	.	.	.	.
8GG/J	.	16.gg\LLyy	.	.	.	.	.	.	.
.	.	32bn\JJkyy	.	.	.	.	.	.	.
!	!	!LO:N:vis=16.	!	!	!	!	!	!	!
8r	.	16b\LLyy	.	.	.	.	.	.	.
.	.	32a-\Lyy	.	.	.	.	.	.	.
.	.	32b\JJJyy	.	.	.	.	.	.	.
8CC/L	.	16cc/LLyy	.	.	.	.	.	.	.
.	.	16g/yy	.	.	.	.	.	.	.
8r	.	16g/yy	.	.	.	.	.	.	.
.	.	16g/JJyy	.	.	.	.	.	.	.
8GG/J	.	16.g/LLyy	.	.	.	.	.	.	.
.	.	32Bn/JJkyy	.	.	.	.	.	.	.
!	!	!LO:N:vis=16.	!	!	!	!	!	!	!
8r	.	16B/LLyy	.	.	.	.	.	.	.
.	.	32A-/Lyy	.	.	.	.	.	.	.
.	.	32B/JJJyy	.	.	.	.	.	.	.
=42	=42	=42	=42	=42	=42	=42	=42	=42	=42
!	!	!	!LO:TX:a:t=Osanna ut supra	!	!	!	!	!	!
8CC/L	1ryy	4c;/yy	0r	.	1ryy	1ryy	1ryy	1ryy	1ryy
8GG/J	.	.	.	.	.	.	.	.	.
4CC/	.	4ryy	.	.	.	.	.	.	.
2r	.	2ryy	.	.	.	.	.	.	.
=43	=43	=43	=43	=43	=43	=43	=43	=43	=43
!LO:TX:t=P:problem=zbędny takt pauzy w Baſso	!LO:TX:t=P:problem=zbędny takt pauzy w Baſso	!LO:TX:t=P:problem=zbędny takt pauzy w Baſso	!LO:TX:t=P:problem=zbędny takt pauzy	!	!	!	!	!	!
1ryy	1ryy	1ryy	.	.	1ryy	1ryy	1ryy	1ryy	1ryy
!LO:LB:g=original	!	!	!	!	!	!	!	!	!
=44||	=44||	=44||	=44||	=44||	=44||	=44||	=44||	=44||	=44||
*ok[a-e-b-]	*ok[e-b-a-]	*ok[e-b-a-]	*	*	*	*	*	*	*
*k[b-e-a-]	*k[b-e-a-]	*k[b-e-a-]	*	*	*	*	*	*	*
*M3/4	*M3/4	*M3/4	*M3/4	*	*M3/4	*M3/4	*M3/4	*M3/4	*M3/4
!LO:TX:b:t=Osanna	!LO:TX:b:t=Osanna	!LO:TX:b:t=Osanna	!	!	!	!	!	!LO:TX:b:t=Osanna	!LO:TX:b:t=Osanna
4E-\	8r	8r	8ryy	.	2.ryy	2.ryy	2.ryy	8B-\Lyy	8e-\Lyy
.	8e-/L	8g/L	8E-\yy	O-	.	.	.	8e-\yy	8g\yy
4r	8f/	8a-/	8F\yy	-san-	.	.	.	8f\yy	8a-\yy
.	8d/	8g/	8E-\yy	-na	.	.	.	8e-\yy	8g\yy
4r	8e-/	8a-/	8F\yy	in	.	.	.	8f\yy	8a-\yy
.	8g/J	8b-/J	8G\yy	ex-	.	.	.	8g\Jyy	8b-\Jyy
=45	=45	=45	=45	=45	=45	=45	=45	=45	=45
4A-\	4a-/	4cc\	4A-\yy	-cel-	2.ryy	2.ryy	2.ryy	4a-\yy	4cc\yy
4E-\	4g/	4b-\	4G\yy	-sis	.	.	.	4g\yy	4b-\yy
4r	4r	4r	4ryy	.	.	.	.	4ryy	4ryy
=46	=46	=46	=46	=46	=46	=46	=46	=46	=46
8r	8r	2ff\	8ryy	.	2.ryy	2.ryy	2.ryy	4f\yy	4a-\yy
8BB-/L	8c/L	.	8BB-/yy	O-	.	.	.	.	.
8C/	8e-/	.	8C/yy	-san-	.	.	.	4ryy	4ryy
8BB-/	8d/	.	8BB-/yy	-na	.	.	.	.	.
8C/	8e-/	4a-/	8C/yy	in	.	.	.	4ryy	4ryy
8D/J	8f/J	.	8D\yy	ex-	.	.	.	.	.
=47	=47	=47	=47	=47	=47	=47	=47	=47	=47
4E-\	4g/	4g/	4E-\yy	-cel-	2.ryy	2.ryy	2.ryy	4e-\yy	4g\yy
4EE-/	4f/	4g/	4E-\yy	-sis	.	.	.	4e-\yy	4g\yy
4r	4r	4r	4ryy	.	.	.	.	4ryy	4ryy
*clefC4	*	*	*	*	*	*	*	*	*
!	!LO:LB:g=original	!	!	!	!	!	!	!	!
=48	=48	=48	=48	=48	=48	=48	=48	=48	=48
8r	8r	2ff\	8ryy	.	2.ryy	2.ryy	2.ryy	2.ryy	0.ryy
8B-\L	8c/L	.	8D\yy	O-	.	.	.	.	.
8c\	8e-/	.	8E-\yy	-san-	.	.	.	.	.
!	!	!	!LO:LB:g=original	!	!	!	!	!	!
=-	=-	=-	=-	=-	=-	=-	=-	=-	=-
8B-\	8d/	.	8D\yy	-na	.	.	.	.	.
8c\	8e-/	4a-/	8E-\Lyy	in	.	.	.	.	.
8d\J	8f/J	.	8F\Jyy	ex-	.	.	.	.	.
!LO:LB:g=original	!	!	!	!	!	!	!	!	!
=49	=49	=49	=49	=49	=49	=49	=49	=49	=49
4e-\	4g/	4g/	4G\yy	-cel-	2.ryy	2.ryy	2.ryy	4e-\yy	.
4E-/	4f/	4g/	4G\yy	-sis	.	.	.	4e-\yy	.
4r	4r	4r	4ryy	.	.	.	.	4ryy	.
*clefF4	*	*	*	*	*	*	*	*	*
!	!	!	!	!	!	!	!	!LO:LB:g=original	!
=50	=50	=50	=50	=50	=50	=50	=50	=50	=50
8r	2d/	2a-/	8ryy	.	2.ryy	2.ryy	2.ryy	1.ryy	.
8F\L	.	.	8F\yy	O-	.	.	.	.	.
8F\	.	.	8F\yy	-san-	.	.	.	.	.
8E-\	.	.	8E-\yy	-na	.	.	.	.	.
8D\	4d/	4a-/	8D\yy	in	.	.	.	.	.
8C\J	.	.	8C/yy	ex-	.	.	.	.	.
!	!	!LO:LB:g=original	!	!	!	!	!	!	!
=51	=51	=51	=51	=51	=51	=51	=51	=51	=51
4BB-/	2d/	2a-/	4BB-/yy	-cel-	2.ryy	2.ryy	2.ryy	.	.
4D\	.	.	4D/yy	.	.	.	.	.	.
4E-\	4d/	4a-/	4E-/yy	-sis	.	.	.	.	.
=52	=52	=52	=52	=52	=52	=52	=52	=52	=52
!LO:TX:a:t=1	!	!	!	!	!	!	!	!	!
2.r	8r	8r	2.ryy	.	2.ryy	2.ryy	2.ryy	2.ryy	2.ryy
.	8e-/L	8g\L	.	.	.	.	.	.	.
.	8f/	8a-\	.	.	.	.	.	.	.
.	8g/	8b-\	.	.	.	.	.	.	.
.	8a-/	8cc\	.	.	.	.	.	.	.
.	8f/J	8dd\J	.	.	.	.	.	.	.
!	!	!	!	!	!	!	!	!	!LO:LB:g=original
=53	=53	=53	=53	=53	=53	=53	=53	=53	=53
!	!	!LO:TX:t=P:problem=mixed beam	!	!	!	!	!	!	!
8r	8g/L	8ee-\L	8ryy	.	2.ryy	2.ryy	2.ryy	8ryy	8ryy
8A-\	8f/J	8g/J	16A-\yy	in	.	.	.	8f\yy	8a-\yy
.	.	.	16A-\yy	ex-	.	.	.	.	.
4B-\	4e-/	4g/	4B-\yy	-cel-	.	.	.	4e-\yy	4g\yy
4BB-/	4d/	4f/	4BB-/yy	.	.	.	.	4B-/yy	4f\yy
=54	=54	=54	=54	=54	=54	=54	=54	=54	=54
4E-\	8e-/L	8e-/L	2E-\yy	-sis	2.ryy	2.ryy	2.ryy	4G/yy	4e-\yy
.	8e-/	8g/	.	.	.	.	.	.	.
4r	8f/	8a-/	.	.	.	.	.	4ryy	4ryy
.	8g/	8b-/	.	.	.	.	.	.	.
4r	8a-/	8cc/	4ryy	.	.	.	.	4ryy	4ryy
.	8f/J	8dd/J	.	.	.	.	.	.	.
!	!LO:LB:g=original	!	!	!	!	!	!	!	!
=55	=55	=55	=55	=55	=55	=55	=55	=55	=55
!	!	!LO:TX:t=P:problem=mixed beam	!	!	!	!	!	!	!
8r	8g/L	8ee-\L	8ryy	.	2.ryy	2.ryy	2.ryy	8ryy	8ryy
8A-\	8f/J	8a-/J	16A-\yy	in	.	.	.	8f\yy	8a-\yy
.	.	.	16A-\yy	ex-	.	.	.	.	.
4B-\	4e-/	4g/	4B-\yy	-cel-	.	.	.	4e-\yy	4g\yy
4BB-/	4d/	4f/	4BB-/yy	.	.	.	.	4B-/yy	4f\yy
!LO:LB:g=original	!	!	!	!	!	!	!	!	!
=56	=56	=56	=56	=56	=56	=56	=56	=56	=56
.	.	8qqf/	.	.	.	.	.	.	.
*2\right	*	*	*	*	*	*	*	*	*2\right
2E-\	2e-/	2e-/	2E-\yy	-sis	2.ryy	2.ryy	2.ryy	2G/yy	2e-\yy
4r	4r	4r	4ryy	.	.	.	.	4ryy	4ryy
==	==	==	==	==	==	==	==	==	==
*-	*-	*-	*-	*-	*-	*-	*-	*-	*-
!!!system-decoration: [(s1,s2)][(s3,s4,s5,s6)][(s7,s8)](s9)
!!!RDF**kern: < = below
!!!RDF**kern: > = above
!!!RDF**kern: | = vertical stroke
!!!ENC: Andrzej Gręziak
!!!END: 2021-02-02
!!!ENC: Marta Chmielewska
!!!END: 2022-01-26
